packages/foundations/assets/icons/functional/images/notification/bell_14_filled.svg

<svg width="14" height="14" viewBox="0 0 14 14" fill="none" xmlns="http://www.w3.org/2000/svg">
<g clip-path="url(#clip0_2214_8040)">
<path fill-rule="evenodd" clip-rule="evenodd" d="M6.99312 1.39999C9.37137 1.39999 10.9569 3.14828 10.9569 5.7571V8.48876C10.9569 9.36294 11.0662 9.52684 11.572 9.89562C11.7906 10.0459 11.9 10.2644 11.9 10.4829C11.9 10.8107 11.6549 11.1795 11.2712 11.1795H8.40096V11.1931C8.40096 11.9717 7.77222 12.6 6.99312 12.6C6.26876 12.6 5.58535 11.9717 5.58535 11.1795H2.79704C2.35968 11.1795 2.09998 10.8244 2.09998 10.4693C2.09998 10.278 2.1683 10.0868 2.34603 9.95025C2.92003 9.58147 3.02944 9.37658 3.02944 8.44777V5.94828C3.02944 3.23026 4.57392 1.39999 6.99312 1.39999Z" fill="#1A1C1F"/>
</g>
<defs>
<clipPath id="clip0_2214_8040">
<rect width="14" height="14" fill="white"/>
</clipPath>
</defs>
</svg>

<svg xmlns="http://www.w3.org/2000/svg" width="14" height="14" fill="none"><g clip-path="url(#a)"><path fill="#1A1C1F" fill-rule="evenodd" d="M6.993 1.4c2.378 0 3.964 1.748 3.964 4.357V8.49c0 .874.11 1.038.615 1.407.219.15.328.368.328.587 0 .328-.245.697-.629.697h-2.87v.013c0 .779-.629 1.407-1.408 1.407-.724 0-1.408-.628-1.408-1.42H2.797c-.437 0-.697-.356-.697-.71 0-.192.068-.383.246-.52.574-.369.683-.573.683-1.502v-2.5C3.03 3.23 4.574 1.4 6.993 1.4" clip-rule="evenodd"/></g><defs><clipPath id="a"><path fill="#fff" d="M0 0h14v14H0z"/></clipPath></defs></svg>
